;FLAVOR:Marlin
;TIME:9387
;Filament used: 5.53041m
;Layer height: 0.2
;MINX:86.127
;MINY:86.497
;MINZ:0.2
;MAXX:148.877
;MAXY:146.598
;MAXZ:76.2
;Generated with Cura_SteamEngine 4.5.0
M140 S50
M105
M190 S50
M104 S200
M105
M109 S200
M82 ;absolute extrusion mode
; Ender 3 Custom Start G-code
G92 E0 ; Reset Extruder
G28 ; Home all axes
G1 Z2.0 F3000 ; Move Z Axis up little to prevent scratching of Heat Bed
G1 X0.1 Y20 Z0.3 F5000.0 ; Move to start position
G1 X0.1 Y200.0 Z0.3 F1500.0 E15 ; Draw the first line
G1 X0.4 Y200.0 Z0.3 F5000.0 ; Move to side a little
G1 X0.4 Y20 Z0.3 F1500.0 E30 ; Draw the second line
G92 E0 ; Reset Extruder
G1 Z2.0 F3000 ; Move Z Axis up little to prevent scratching of Heat Bed
G1 X5 Y20 Z0.3 F5000.0 ; Move over to prevent blob squish
G92 E0
G92 E0
G1 F2700 E-5
;LAYER_COUNT:381
;LAYER:0
M107
G0 F6000 X108.82 Y92.826 Z0.2
;TYPE:SKIRT
G1 F2700 E0
G1 F1200 X109.268 Y92.328 E0.02228
G1 X109.699 Y91.876 E0.04305
G1 X110.289 Y91.296 E0.07057
G1 X110.674 Y90.934 E0.08815
G1 X111.384 Y90.321 E0.11934
G1 X111.841 Y89.979 E0.13833
G1 X112.52 Y89.503 E0.16591
G1 X113.006 Y89.18 E0.18532
G1 X113.809 Y88.694 E0.21654
G1 X114.346 Y88.419 E0.2366
G1 X115.134 Y88.047 E0.26559
G1 X115.631 Y87.827 E0.28366
G1 X116.504 Y87.485 E0.31485
G1 X117.103 Y87.297 E0.33573
G1 X117.869 Y87.085 E0.36216
G1 X118.403 Y86.949 E0.38049
G1 X119.321 Y86.757 E0.41169
G1 X119.968 Y86.669 E0.4334
G1 X120.51 Y86.612 E0.45153
G1 X120.826 Y86.584 E0.46208
G1 X121.617 Y86.527 E0.48846
G1 X121.874 Y86.514 E0.49702
G1 X122.352 Y86.5 E0.51292
G1 X122.775 Y86.497 E0.52699
G1 X131.49 Y86.498 E0.81685
G1 X132.188 Y86.508 E0.84007
G1 X133.124 Y86.562 E0.87125
G1 X134.052 Y86.694 E0.90243
G1 X134.966 Y86.906 E0.93364
G1 X135.858 Y87.195 E0.96482
G1 X136.723 Y87.558 E0.99602
G1 X137.553 Y87.994 E1.02721
G1 X138.344 Y88.499 E1.05842
G1 X139.088 Y89.07 E1.08961
G1 X139.781 Y89.702 E1.12081
G1 X140.418 Y90.39 E1.15199
G1 X140.993 Y91.131 E1.18319
G1 X141.504 Y91.917 E1.21437
G1 X141.946 Y92.745 E1.24559
G1 X142.315 Y93.607 E1.27678
G1 X142.61 Y94.497 E1.30796
G1 X142.828 Y95.409 E1.33915
G1 X142.956 Y96.235 E1.36695
G1 X143.009 Y96.699 E1.38248
G1 X143.216 Y98.755 E1.45121
G1 X143.54 Y101.26 E1.53522
G1 X143.928 Y103.717 E1.61795
G1 X144.397 Y106.22 E1.70265
G1 X144.921 Y108.638 E1.78494
G1 X145.529 Y111.107 E1.86952
G1 X146.202 Y113.54 E1.95348
G1 X146.94 Y115.94 E2.03699
G1 X148.147 Y119.457 E2.16066
G1 X148.243 Y119.754 E2.17104
G1 X148.5 Y120.69 E2.20333
G1 X148.56 Y120.953 E2.2123
G1 X148.73 Y121.876 E2.24352
G1 X148.801 Y122.528 E2.26533
G1 X148.832 Y122.918 E2.27834
G1 X148.865 Y123.581 E2.30042
G1 X148.877 Y124.317 E2.3249
G1 X148.876 Y126.84 E2.40882
G1 X148.866 Y127.546 E2.4323
G1 X148.835 Y128.229 E2.45504
G1 X148.805 Y128.621 E2.46812
G1 X148.694 Y129.553 E2.49934
G1 X148.546 Y130.295 E2.5245
G1 X148.454 Y130.687 E2.53789
G1 X148.201 Y131.59 E2.56908
G1 X147.92 Y132.354 E2.59616
G1 X147.768 Y132.724 E2.60946
G1 X147.375 Y133.575 E2.64064
G1 X146.978 Y134.282 E2.66761
G1 X146.775 Y134.614 E2.68055
G1 X145.974 Y135.755 E2.72692
G1 X145.562 Y136.263 E2.74867
G1 X145.346 Y136.518 E2.75979
G1 X144.375 Y137.651 E2.80942
G1 X142.778 Y139.626 E2.89389
G1 X140.862 Y142.148 E2.99924
G1 X140.27 Y142.876 E3.03045
G1 X139.619 Y143.55 E3.06161
G1 X138.912 Y144.167 E3.09282
G1 X138.156 Y144.721 E3.124
G1 X137.355 Y145.209 E3.15519
G1 X136.515 Y145.627 E3.1864
G1 X135.643 Y145.971 E3.21758
G1 X134.744 Y146.24 E3.24879
G1 X133.826 Y146.432 E3.27998
G1 X132.539 Y146.567 E3.32302
G1 X132.099 Y146.587 E3.33767
G1 X131.6 Y146.598 E3.35427
G1 X104.191 Y146.598 E4.2659
G1 X101.985 Y146.59 E4.33927
G1 X101.006 Y146.598 E4.37184
G1 X97.686 Y146.597 E4.48226
G1 X96.997 Y146.587 E4.50518
G1 X96.061 Y146.533 E4.53636
G1 X95.133 Y146.4 E4.56754
G1 X94.219 Y146.188 E4.59875
G1 X93.327 Y145.9 E4.62992
G1 X92.462 Y145.536 E4.66114
G1 X91.632 Y145.1 E4.69232
G1 X90.842 Y144.595 E4.72351
G1 X90.098 Y144.024 E4.7547
G1 X89.405 Y143.392 E4.78589
G1 X88.768 Y142.703 E4.8171
G1 X88.192 Y141.963 E4.84829
G1 X87.682 Y141.176 E4.87949
G1 X87.24 Y140.348 E4.9107
G1 X86.871 Y139.486 E4.94189
G1 X86.576 Y138.596 E4.97307
G1 X86.358 Y137.684 E5.00426
G1 X86.219 Y136.756 E5.03547
G1 X86.16 Y135.847 E5.06577
G1 X86.134 Y134.665 E5.10509
G1 X86.127 Y133.037 E5.15924
G1 X86.133 Y132.336 E5.18256
G1 X86.181 Y131.399 E5.21376
G1 X86.309 Y130.47 E5.24495
G1 X86.515 Y129.555 E5.27615
G1 X86.799 Y128.661 E5.30735
G1 X87.274 Y127.552 E5.34747
G1 X87.847 Y126.395 E5.39042
G1 X88.99 Y124.013 E5.47829
G1 X90.021 Y121.7 E5.56252
G1 X90.984 Y119.366 E5.64649
G1 X91.857 Y117.058 E5.72857
G1 X93.009 Y113.688 E5.84702
G1 X93.345 Y112.653 E5.88321
G1 X93.536 Y112.112 E5.9023
G1 X93.653 Y111.798 E5.91344
G1 X93.791 Y111.442 E5.92614
G1 X94.305 Y110.311 E5.96746
G1 X94.68 Y109.605 E5.99405
G1 X94.883 Y109.243 E6.00785
G1 X95.577 Y108.159 E6.05066
G1 X96.082 Y107.47 E6.07908
G1 X96.323 Y107.157 E6.09221
G1 X96.816 Y106.552 E6.11817
G1 X97.069 Y106.259 E6.13105
G1 X108.82 Y92.826 E6.72466
G0 F6000 X109.118 Y93.094
G1 F1200 X109.566 Y92.596 E6.74694
G1 X109.981 Y92.16 E6.76696
G1 X110.563 Y91.588 E6.7941
G1 X110.948 Y91.226 E6.81167
G1 X111.645 Y90.625 E6.84228
G1 X112.072 Y90.305 E6.86003
G1 X112.472 Y90.021 E6.87635
G1 X112.742 Y89.836 E6.88723
G1 X113.228 Y89.513 E6.90664
G1 X114.016 Y89.037 E6.93726
G1 X114.519 Y88.78 E6.95605
G1 X115.295 Y88.413 E6.9846
G1 X115.792 Y88.193 E7.00268
G1 X116.65 Y87.857 E7.03332
G1 X117.211 Y87.682 E7.05287
G1 X117.968 Y87.473 E7.07899
G1 X118.502 Y87.337 E7.09732
G1 X119.403 Y87.149 E7.12793
G1 X120.009 Y87.067 E7.14827
G1 X120.856 Y86.982 E7.17658
G1 X121.637 Y86.927 E7.20262
G1 X121.894 Y86.914 E7.21118
G1 X122.355 Y86.9 E7.22652
G1 X122.778 Y86.897 E7.24059
G1 X131.484 Y86.898 E7.53015
G1 X132.182 Y86.908 E7.55337
G1 X133.101 Y86.961 E7.58399
G1 X134.012 Y87.094 E7.61461
G1 X134.908 Y87.305 E7.64523
G1 X135.782 Y87.593 E7.67583
G1 X136.629 Y87.956 E7.70648
G1 X137.44 Y88.391 E7.73709
G1 X138.21 Y88.895 E7.7677
G1 X138.934 Y89.464 E7.79833
G1 X139.606 Y90.094 E7.82897
G1 X140.221 Y90.779 E7.85958
G1 X140.774 Y91.515 E7.8902
G1 X141.261 Y92.296 E7.92082
G1 X141.678 Y93.117 E7.95144
G1 X142.023 Y93.971 E7.98208
G1 X142.292 Y94.851 E8.01268
G1 X142.484 Y95.752 E8.04332
G1 X142.559 Y96.281 E8.06109
G1 X142.611 Y96.739 E8.07642
G1 X142.82 Y98.815 E8.14582
G1 X143.142 Y101.302 E8.22923
G1 X143.533 Y103.782 E8.31273
G1 X144.006 Y106.307 E8.39818
G1 X144.528 Y108.713 E8.48006
G1 X145.147 Y111.228 E8.56621
G1 X145.813 Y113.636 E8.6493
G1 X146.559 Y116.062 E8.73372
G1 X147.766 Y119.58 E8.85743
G1 X147.862 Y119.877 E8.86781
G1 X148.11 Y120.779 E8.89892
G1 X148.17 Y121.042 E8.90789
G1 X148.336 Y121.948 E8.93853
G1 X148.403 Y122.56 E8.95901
G1 X148.434 Y122.95 E8.97202
G1 X148.465 Y123.589 E8.9933
G1 X148.477 Y124.317 E9.01751
G1 X148.476 Y126.834 E9.10123
G1 X148.466 Y127.54 E9.12471
G1 X148.436 Y128.199 E9.14665
G1 X148.406 Y128.591 E9.15973
G1 X148.296 Y129.505 E9.19035
G1 X148.157 Y130.204 E9.21405
G1 X148.065 Y130.596 E9.22745
G1 X147.816 Y131.482 E9.25806
G1 X147.55 Y132.202 E9.28359
G1 X147.398 Y132.572 E9.29689
G1 X147.011 Y133.408 E9.32753
G1 X146.636 Y134.074 E9.35295
G1 X146.433 Y134.406 E9.36589
G1 X145.662 Y135.505 E9.41055
G1 X145.256 Y136.005 E9.43197
G1 X145.042 Y136.258 E9.44299
G1 X144.062 Y137.402 E9.49309
G1 X142.464 Y139.377 E9.57759
G1 X140.541 Y141.909 E9.68334
G1 X139.96 Y142.623 E9.71395
G1 X139.319 Y143.284 E9.74458
G1 X138.623 Y143.886 E9.77519
G1 X137.877 Y144.426 E9.80582
G1 X137.087 Y144.899 E9.83644
G1 X136.259 Y145.302 E9.86707
G1 X135.4 Y145.632 E9.89768
G1 X134.515 Y145.885 E9.92829
G1 X133.611 Y146.061 E9.95892
G1 X132.521 Y146.167 E9.99535
G1 X132.081 Y146.187 E10.01
G1 X131.6 Y146.198 E10.026
G1 X104.192 Y146.198 E10.93759
G1 X101.982 Y146.19 E11.0111
G1 X101.002 Y146.198 E11.04369
G1 X97.692 Y146.197 E11.15378
G1 X97.003 Y146.187 E11.1767
G1 X96.084 Y146.134 E11.20732
G1 X95.173 Y146.001 E11.23794
G1 X94.277 Y145.789 E11.26857
G1 X93.403 Y145.501 E11.29917
G1 X92.557 Y145.138 E11.32979
G1 X91.745 Y144.703 E11.36043
G1 X90.975 Y144.199 E11.39104
G1 X90.251 Y143.63 E11.42167
G1 X89.579 Y143 E11.4523
G1 X88.965 Y142.315 E11.4829
G1 X88.412 Y141.578 E11.51354
G1 X87.925 Y140.797 E11.54416
G1 X87.508 Y139.976 E11.57478
G1 X87.164 Y139.122 E11.60541
G1 X86.895 Y138.242 E11.63601
G1 X86.703 Y137.341 E11.66665
G1 X86.59 Y136.428 E11.69725
G1 X86.56 Y135.838 E11.7169
G1 X86.534 Y134.663 E11.75599
G1 X86.527 Y133.04 E11.80997
G1 X86.533 Y132.339 E11.83329
G1 X86.581 Y131.42 E11.86389
G1 X86.709 Y130.508 E11.89453
G1 X86.915 Y129.611 E11.92514
G1 X87.198 Y128.735 E11.95576
G1 X87.632 Y127.729 E11.9922
G1 X88.25 Y126.48 E12.03854
G1 X89.358 Y124.17 E12.12376
G1 X90.371 Y121.897 E12.20652
G1 X91.363 Y119.495 E12.29296
G1 X92.237 Y117.184 E12.37514
G1 X93.38 Y113.841 E12.49265
G1 X93.723 Y112.786 E12.52954
G1 X93.914 Y112.245 E12.54863
G1 X94.026 Y111.943 E12.55934
G1 X94.164 Y111.587 E12.57204
G1 X94.659 Y110.496 E12.61189
G1 X95.028 Y109.8 E12.63809
G1 X95.231 Y109.438 E12.65189
G1 X95.9 Y108.394 E12.69313
G1 X96.399 Y107.714 E12.72118
G1 X96.64 Y107.401 E12.73432
G1 X97.12 Y106.813 E12.75957
G1 X97.37 Y106.522 E12.77233
G1 X109.118 Y93.094 E13.36575
G0 F6000 X109.415 Y93.361
G1 F1200 X109.863 Y92.863 E13.38803
G1 X110.262 Y92.444 E13.40727
G1 X110.837 Y91.879 E13.43408
G1 X111.222 Y91.517 E13.45166
G1 X111.907 Y90.928 E13.48171
G1 X112.304 Y90.631 E13.4982
G1 X112.963 Y90.169 E13.52497
G1 X113.449 Y89.846 E13.54437
G1 X114.223 Y89.38 E13.57442
G1 X114.692 Y89.14 E13.59195
G1 X115.457 Y88.779 E13.62008
G1 X115.954 Y88.559 E13.63816
G1 X116.796 Y88.23 E13.66822
G1 X117.32 Y88.067 E13.68648
G1 X118.067 Y87.861 E13.71225
G1 X118.601 Y87.725 E13.73058
G1 X119.485 Y87.541 E13.76061
G1 X120.051 Y87.465 E13.7796
G1 X120.887 Y87.381 E13.80755
G1 X121.658 Y87.326 E13.83326
G1 X121.915 Y87.313 E13.84182
G1 X122.358 Y87.3 E13.85656
G1 X122.781 Y87.297 E13.87063
G1 X131.478 Y87.298 E14.15989
G1 X132.176 Y87.308 E14.18311
G1 X133.078 Y87.361 E14.21316
G1 X133.971 Y87.493 E14.24318
G1 X134.849 Y87.704 E14.27322
G1 X135.705 Y87.992 E14.30326
G1 X136.532 Y88.354 E14.33328
G1 X137.324 Y88.789 E14.36334
G1 X138.075 Y89.291 E14.39338
G1 X138.778 Y89.858 E14.42342
G1 X139.428 Y90.485 E14.45346
G1 X140.02 Y91.167 E14.4835
G1 X140.55 Y91.898 E14.51353
G1 X141.012 Y92.674 E14.54357
G1 X141.405 Y93.487 E14.5736
G1 X141.723 Y94.332 E14.60363
G1 X141.966 Y95.202 E14.63367
G1 X142.162 Y96.327 E14.67165
G1 X142.213 Y96.779 E14.68678
G1 X142.42 Y98.835 E14.75551
G1 X142.749 Y101.379 E14.84083
G1 X143.139 Y103.852 E14.9241
G1 X143.616 Y106.394 E15.01012
G1 X144.14 Y108.814 E15.09248
G1 X144.753 Y111.301 E15.17767
G1 X145.438 Y113.777 E15.26312
G1 X146.169 Y116.154 E15.34583
G1 X147.386 Y119.703 E15.47062
G1 X147.482 Y120 E15.481
G1 X147.72 Y120.868 E15.51093
G1 X147.78 Y121.131 E15.51991
G1 X147.942 Y122.02 E15.54996
G1 X148.004 Y122.592 E15.5691
G1 X148.035 Y122.982 E15.58211
G1 X148.065 Y123.596 E15.60255
G1 X148.077 Y124.317 E15.62654
G1 X148.076 Y126.828 E15.71006
G1 X148.066 Y127.534 E15.73354
G1 X148.037 Y128.168 E15.75465
G1 X148.007 Y128.56 E15.76772
G1 X147.899 Y129.457 E15.79777
G1 X147.767 Y130.113 E15.82003
G1 X147.675 Y130.505 E15.83342
G1 X147.43 Y131.374 E15.86345
G1 X147.18 Y132.05 E15.88742
G1 X147.028 Y132.42 E15.90073
G1 X146.648 Y133.239 E15.93076
G1 X146.295 Y133.865 E15.95466
G1 X146.092 Y134.197 E15.9676
G1 X145.349 Y135.255 E16.0106
G1 X144.951 Y135.746 E16.03163
G1 X144.738 Y135.998 E16.0426
G1 X143.763 Y137.136 E16.09244
G1 X142.151 Y139.129 E16.1777
G1 X140.221 Y141.67 E16.28383
G1 X139.65 Y142.37 E16.31387
G1 X139.019 Y143.017 E16.34393
G1 X138.334 Y143.605 E16.37396
G1 X137.599 Y144.13 E16.404
G1 X136.821 Y144.588 E16.43403
G1 X136.005 Y144.976 E16.46408
G1 X135.158 Y145.29 E16.49412
G1 X134.287 Y145.527 E16.52415
G1 X133.398 Y145.687 E16.55419
G1 X132.503 Y145.767 E16.58408
G1 X132.063 Y145.787 E16.59873
G1 X131.6 Y145.798 E16.61413
G1 X104.193 Y145.798 E17.52569
G1 X101.98 Y145.79 E17.5993
G1 X100.999 Y145.798 E17.63192
G1 X97.698 Y145.797 E17.74172
G1 X97.009 Y145.787 E17.76463
G1 X96.107 Y145.734 E17.79469
G1 X95.214 Y145.601 E17.82472
G1 X94.336 Y145.39 E17.85475
G1 X93.48 Y145.102 E17.88479
G1 X92.653 Y144.74 E17.91481
G1 X91.861 Y144.305 E17.94487
G1 X91.111 Y143.803 E17.97489
G1 X90.408 Y143.236 E18.00492
G1 X89.758 Y142.609 E18.03496
G1 X89.166 Y141.927 E18.065
G1 X88.636 Y141.195 E18.09506
G1 X88.174 Y140.419 E18.1251
G1 X87.782 Y139.606 E18.15512
G1 X87.463 Y138.761 E18.18516
G1 X87.22 Y137.891 E18.2152
G1 X87.056 Y137.003 E18.24523
G1 X86.96 Y135.829 E18.28441
G1 X86.934 Y134.661 E18.32327
G1 X86.927 Y133.044 E18.37705
G1 X86.933 Y132.343 E18.40037
G1 X86.981 Y131.441 E18.43041
G1 X87.108 Y130.547 E18.46044
G1 X87.314 Y129.667 E18.4905
G1 X87.597 Y128.81 E18.52052
G1 X87.991 Y127.907 E18.55329
G1 X88.555 Y126.767 E18.59559
G1 X89.72 Y124.341 E18.6851
G1 X90.754 Y122.02 E18.76962
G1 X91.727 Y119.663 E18.85443
G1 X92.61 Y117.328 E18.93746
G1 X93.781 Y113.901 E19.05791
G1 X94.1 Y112.919 E19.09225
G1 X94.399 Y112.087 E19.12166
G1 X94.537 Y111.731 E19.13436
G1 X95.013 Y110.682 E19.17267
G1 X95.377 Y109.996 E19.1985
G1 X95.58 Y109.634 E19.2123
G1 X96.224 Y108.629 E19.252
G1 X96.716 Y107.958 E19.27968
G1 X96.957 Y107.645 E19.29282
G1 X97.424 Y107.073 E19.31738
G1 X97.671 Y106.785 E19.33
G1 X109.415 Y93.361 E19.92323
G1 F2700 E14.92323
;MESH:ENDER_3_TOOL_HOLDER.STL
G0 F6000 X116.59 Y99.639
G0 X117.393 Y100.341
G0 X116.593 Y102.459
G0 X105.94 Y114.6
G0 X105.468 Y115.233
G0 X105.113 Y115.883
G0 X104.852 Y116.587
G0 X104.697 Y117.312
G0 X104.683 Y117.525
G0 X104.473 Y134.598
;TYPE:WALL-INNER
G1 F2700 E19.92323
G1 F1200 X104.473 Y118.068 E20.47302
G1 X104.528 Y117.287 E20.49906
G1 X104.689 Y116.536 E20.5246
G1 X104.956 Y115.816 E20.55014
G1 X105.326 Y115.137 E20.57586
G1 X105.803 Y114.499 E20.60236
G1 X118.177 Y100.354 E21.22743
G1 X118.837 Y99.718 E21.25792
G1 X119.591 Y99.201 E21.28832
G1 X120.418 Y98.82 E21.31861
G1 X121.293 Y98.586 E21.34873
G1 X122.234 Y98.501 E21.38016
G1 X122.455 Y98.497 E21.38751
G1 X131.039 Y98.497 E21.67302
G1 X131.048 Y121.521 E22.4388
G1 X132.761 Y123.252 E22.5198
G1 X132.935 Y123.403 E22.52746
G1 X133.17 Y123.542 E22.53654
G1 X133.419 Y123.637 E22.5454
G1 X133.667 Y123.686 E22.55381
G1 X133.945 Y123.701 E22.56307
G1 X134.22 Y123.655 E22.57235
G1 X134.461 Y123.579 E22.58075
G1 X134.701 Y123.456 E22.58972
G1 X134.915 Y123.296 E22.59861
G1 X135.096 Y123.103 E22.60741
G1 X135.248 Y122.88 E22.61638
G1 X135.357 Y122.631 E22.62542
G1 X135.421 Y122.376 E22.63417
G1 X135.431 Y122.255 E22.63821
G1 X135.439 Y122.158 E22.64144
G1 X135.441 Y121.768 E22.65442
G1 X135.486 Y121.768 E22.65591
G1 X135.657 Y121.939 E22.65852
G1 X135.725 Y122.007 E22.66139
G1 X136.397 Y122.679 E22.693
G1 X136.582 Y122.893 E22.70241
G1 X136.703 Y123.092 E22.71016
G1 X136.801 Y123.328 E22.71866
G1 X136.854 Y123.553 E22.72635
G1 X136.877 Y123.836 E22.73579
G1 X136.877 Y127.355 E22.85283
G1 X136.854 Y127.642 E22.86241
G1 X136.799 Y127.872 E22.87027
G1 X136.709 Y128.092 E22.87818
G1 X136.58 Y128.302 E22.88638
G1 X136.392 Y128.521 E22.89598
G1 X135.727 Y129.184 E22.92721
G1 X135.653 Y129.258 E22.93069
G1 X135.484 Y129.426 E22.93861
G1 X135.44 Y129.425 E22.94008
G1 X135.439 Y129.044 E22.94734
G1 X135.431 Y128.939 E22.95046
G1 X135.422 Y128.826 E22.95423
G1 X135.358 Y128.561 E22.9633
G1 X135.246 Y128.314 E22.97232
G1 X135.099 Y128.092 E22.98118
G1 X134.916 Y127.9 E22.99
G1 X134.702 Y127.739 E22.9989
G1 X134.466 Y127.617 E23.00774
G1 X134.213 Y127.537 E23.01657
G1 X134.18 Y127.533 E23.01767
G1 X133.958 Y127.501 E23.02513
G1 X133.691 Y127.502 E23.03401
G1 X133.417 Y127.558 E23.04331
G1 X133.166 Y127.655 E23.05226
G1 X132.938 Y127.791 E23.06109
G1 X132.769 Y127.935 E23.06848
G1 X131.048 Y129.655 E23.14941
G1 X131.048 Y134.598 E23.31381
G1 X104.473 Y134.598 E24.1977
G0 F6000 X104.073 Y134.998
G1 F1200 X104.073 Y118.054 E24.76126
G1 X104.131 Y117.231 E24.7887
G1 X104.304 Y116.424 E24.81615
G1 X104.591 Y115.649 E24.84364
